build/img/logo.svg

<svg xmlns="http://www.w3.org/2000/svg" width="53" height="55"><path fill-rule="evenodd" fill="#6D5CAD" d="M52.313 16.033c-.891 2.183-2.605 3.532-4.957 3.9-1.028.161-1.683.52-1.944 1.066a1.565 1.565 0 00-.117.356l-.004.018c-.263 1.339.911 3.371 1.379 4.182l.096.168c.22.384 1.323 2.453 1.454 5.447.142 3.265-.899 6.33-3.096 9.112v3.733a.807.807 0 01-1.615 0v-4.016c0-.186.064-.366.182-.51 5.284-6.473 1.823-12.704 1.673-12.966l-.093-.162a24.293 24.293 0 01-.511-.916 22.11 22.11 0 01-13.212-3.92 16.797 16.797 0 01-3.28 4.443.806.806 0 11-1.129-1.153c3.686-3.599 4.4-7.603 4.973-10.821.133-.743.258-1.446.411-2.085.97-4.051 3.67-5.675 4.692-6.156C38.864 1 43.857.049 44.073.01a.816.816 0 01.951.794v4.235c1.436.193 3.65.639 4.326 1.602.161.23 2.871 3.746 3.29 4.526l.016.028c.189.354.292.635.325.885.007.055.007.111.012.167.064.778-.321 2.908-.68 3.786zm-20.091 3.995a20.485 20.485 0 0011.823 3.813c-.214-.605-.372-1.248-.399-1.881-5.779-.323-9.161-2.57-10.737-3.98a20.615 20.615 0 01-.687 2.048zm18.439-7.781c0-.302.091-.589.25-.831-.572-.868-1.516-2.074-2.006-2.699a32.551 32.551 0 01-.879-1.151c-.275-.35-2.129-.83-3.89-1.006a.806.806 0 01-.727-.803V1.866c-1.385.485-3.88 1.749-4.765 4.715a.802.802 0 01-.512.533c-.121.044-3.071 1.134-4.038 5.17a37.275 37.275 0 00-.391 1.993 66.889 66.889 0 01-.353 1.87c.349.386 1.125 1.149 2.394 1.916 1.583.957 4.266 2.107 8.187 2.295l.023-.054c.505-1.056 1.565-1.716 3.152-1.965 3.03-.475 3.958-2.879 4.198-4.848a1.513 1.513 0 01-.643-1.244zm-4.112-.821a1.173 1.173 0 110-2.342 1.173 1.173 0 010 2.342zM35.278 42.802c0-1.189-.172-2.295-.512-3.284a.807.807 0 011.525-.531l4.708 13.294a1.662 1.662 0 001.565 1.105h5.104c-.221-.736-.757-1.371-1.602-1.896-.94-.583-1.913-.803-1.922-.806a.808.808 0 01-.635-.788v-2.654a.807.807 0 011.615 0v2.048a8.573 8.573 0 011.751.803c1.651 1.009 2.524 2.427 2.524 4.1a.807.807 0 01-.808.807h-6.027a3.28 3.28 0 01-3.088-2.181l-2.843-8.027c-.488 1.755-1.656 3.162-3.456 4.15 1.515.084 2.718.591 3.579 1.511 1.457 1.555 1.331 3.703 1.325 3.794a.807.807 0 01-.806.753H19.129c-1.654 0-3.204-.633-4.5-1.834-3.115-.302-6.238-1.824-8.824-4.309-2.847-2.735-4.734-6.304-5.458-10.323a.807.807 0 011.59-.285c1.469 8.153 7.847 12.954 13.104 13.332a.81.81 0 01.513.234c1.043 1.043 2.246 1.571 3.575 1.571h17.286c-.087-.539-.306-1.268-.848-1.841-.629-.665-1.589-1.002-2.853-1.002h-6.355a.808.808 0 01-.018-1.614c.93-.02 3.317-.166 5.38-1.069 2.393-1.048 3.557-2.702 3.557-5.058zM20.532 30.868c-4.738 1.985-9.134 7.702-7.586 15.564a.807.807 0 01-.271.772c-.453.382-1.002.072-1.462-.125-4.282-1.836-6.817-5.117-7.536-9.751-.843-5.438.458-9.658 3.867-12.545 2.597-2.198 5.491-2.79 5.613-2.814a.934.934 0 00.752-1.089.934.934 0 00-1.089-.744c-.136.026-3.375.654-6.36 3.124-2.343 1.939-5.088 5.575-4.854 11.887a.806.806 0 01-.777.836.812.812 0 01-.837-.776c-.259-6.969 2.814-11.019 5.438-13.19 3.304-2.733 6.94-3.438 7.093-3.467a2.552 2.552 0 012.974 2.032 2.548 2.548 0 01-2.034 2.971c-.016.003-2.617.55-4.875 2.461-2.95 2.498-4.066 6.222-3.314 11.067.586 3.785 2.558 6.535 5.866 8.186-.614-5.89 1.769-12.956 8.767-15.888 1.82-.762 3.446-1.636 4.833-2.598a.808.808 0 01.922 1.326c-1.481 1.026-3.206 1.955-5.13 2.761z"/></svg>

<svg 
 xmlns="http://www.w3.org/2000/svg"
 xmlns:xlink="http://www.w3.org/1999/xlink"
 width="53px" height="55px">
<path fill-rule="evenodd"  fill="rgb(109, 92, 173)"
 d="M52.313,16.033 C51.422,18.216 49.708,19.565 47.356,19.933 C46.328,20.094 45.673,20.453 45.412,20.999 C45.359,21.110 45.321,21.230 45.295,21.355 C45.294,21.361 45.293,21.367 45.291,21.373 C45.028,22.712 46.202,24.744 46.670,25.555 L46.766,25.723 C46.986,26.107 48.089,28.176 48.220,31.170 C48.362,34.435 47.321,37.500 45.124,40.282 L45.124,44.015 C45.124,44.460 44.763,44.822 44.317,44.822 C43.870,44.822 43.509,44.460 43.509,44.015 L43.509,39.999 C43.509,39.813 43.573,39.633 43.691,39.489 C48.975,33.016 45.514,26.785 45.364,26.523 L45.271,26.361 C45.129,26.117 44.949,25.804 44.760,25.445 C44.554,25.451 44.338,25.455 44.111,25.455 C41.084,25.455 36.308,24.806 31.548,21.525 C30.788,23.018 29.745,24.527 28.268,25.968 C27.949,26.280 27.438,26.274 27.126,25.956 C26.814,25.637 26.820,25.126 27.139,24.815 C30.825,21.216 31.539,17.212 32.112,13.994 C32.245,13.251 32.370,12.548 32.523,11.909 C33.493,7.858 36.193,6.234 37.215,5.753 C38.864,1.000 43.857,0.049 44.073,0.010 C44.561,-0.077 45.024,0.309 45.024,0.804 L45.024,5.039 C46.460,5.232 48.674,5.678 49.350,6.641 C49.511,6.871 52.221,10.387 52.640,11.167 C52.645,11.176 52.651,11.185 52.656,11.195 C52.845,11.549 52.948,11.830 52.981,12.080 C52.988,12.135 52.988,12.191 52.993,12.247 C53.057,13.025 52.672,15.155 52.313,16.033 ZM32.222,20.028 C36.685,23.196 41.188,23.833 44.045,23.841 C43.831,23.236 43.673,22.593 43.646,21.960 C37.867,21.637 34.485,19.390 32.909,17.980 C32.722,18.647 32.498,19.333 32.222,20.028 ZM50.661,12.247 C50.661,11.945 50.752,11.658 50.911,11.416 C50.339,10.548 49.395,9.342 48.905,8.717 C48.517,8.222 48.212,7.831 48.026,7.566 C47.751,7.216 45.897,6.736 44.136,6.560 C43.723,6.519 43.409,6.172 43.409,5.757 L43.409,1.866 C42.024,2.351 39.529,3.615 38.644,6.581 C38.570,6.832 38.379,7.030 38.132,7.114 C38.011,7.158 35.061,8.248 34.094,12.284 C33.953,12.878 33.831,13.558 33.703,14.277 C33.598,14.865 33.486,15.492 33.350,16.147 C33.699,16.533 34.475,17.296 35.744,18.063 C37.327,19.020 40.010,20.170 43.931,20.358 C43.939,20.340 43.946,20.322 43.954,20.304 C44.459,19.248 45.519,18.588 47.106,18.339 C50.136,17.864 51.064,15.460 51.304,13.491 C50.913,13.216 50.661,12.763 50.661,12.247 ZM46.549,11.426 C45.902,11.426 45.376,10.900 45.376,10.254 C45.376,9.607 45.902,9.082 46.549,9.082 C47.196,9.082 47.723,9.607 47.723,10.254 C47.723,10.900 47.196,11.426 46.549,11.426 ZM35.278,42.802 C35.278,41.613 35.106,40.507 34.766,39.518 C34.622,39.098 34.844,38.641 35.264,38.494 C35.684,38.348 36.143,38.568 36.291,38.987 L40.999,52.281 C41.233,52.942 41.862,53.386 42.564,53.386 L47.668,53.386 C47.447,52.650 46.911,52.015 46.066,51.490 C45.126,50.907 44.153,50.687 44.144,50.684 C43.774,50.602 43.509,50.275 43.509,49.896 L43.509,47.242 C43.509,46.797 43.870,46.435 44.317,46.435 C44.763,46.435 45.124,46.797 45.124,47.242 L45.124,49.290 C45.581,49.441 46.227,49.697 46.875,50.093 C48.526,51.102 49.399,52.520 49.399,54.193 C49.399,54.639 49.037,55.000 48.591,55.000 L42.564,55.000 C41.179,55.000 39.938,54.124 39.476,52.819 L36.633,44.792 C36.145,46.547 34.977,47.954 33.177,48.942 C34.692,49.026 35.895,49.533 36.756,50.453 C38.213,52.008 38.087,54.156 38.081,54.247 C38.053,54.670 37.701,55.000 37.275,55.000 L19.129,55.000 C17.475,55.000 15.925,54.367 14.629,53.166 C11.514,52.864 8.391,51.342 5.805,48.857 C2.958,46.122 1.071,42.553 0.347,38.534 C0.268,38.096 0.560,37.676 0.999,37.597 C1.439,37.519 1.858,37.810 1.937,38.249 C3.406,46.402 9.784,51.203 15.041,51.581 C15.234,51.595 15.417,51.678 15.554,51.815 C16.597,52.858 17.800,53.386 19.129,53.386 L36.415,53.386 C36.328,52.847 36.109,52.118 35.567,51.545 C34.938,50.880 33.978,50.543 32.714,50.543 L26.359,50.543 C25.916,50.543 25.556,50.187 25.551,49.745 C25.546,49.303 25.898,48.939 26.341,48.929 C27.271,48.909 29.658,48.763 31.721,47.860 C34.114,46.812 35.278,45.158 35.278,42.802 ZM20.532,30.868 C15.794,32.853 11.398,38.570 12.946,46.432 C13.002,46.720 12.899,47.015 12.675,47.204 C12.222,47.586 11.673,47.276 11.213,47.079 C6.931,45.243 4.396,41.962 3.677,37.328 C2.834,31.890 4.135,27.670 7.544,24.783 C10.141,22.585 13.035,21.993 13.157,21.969 C13.670,21.873 14.004,21.385 13.909,20.880 C13.815,20.376 13.327,20.042 12.820,20.136 C12.684,20.162 9.445,20.790 6.460,23.260 C4.117,25.199 1.372,28.835 1.606,35.147 C1.623,35.592 1.275,35.967 0.829,35.983 C0.387,35.996 0.009,35.652 -0.008,35.207 C-0.267,28.238 2.806,24.188 5.430,22.017 C8.734,19.284 12.370,18.579 12.523,18.550 C13.904,18.293 15.239,19.204 15.497,20.582 C15.756,21.961 14.844,23.294 13.463,23.553 C13.447,23.556 10.846,24.103 8.588,26.014 C5.638,28.512 4.522,32.236 5.274,37.081 C5.860,40.866 7.832,43.616 11.140,45.267 C10.526,39.377 12.909,32.311 19.907,29.379 C21.727,28.617 23.353,27.743 24.740,26.781 C25.107,26.527 25.610,26.618 25.864,26.984 C26.119,27.350 26.028,27.853 25.662,28.107 C24.181,29.133 22.456,30.062 20.532,30.868 Z"/>
</svg>
